src/images/Ishan/Think.svg

<svg fill="none" height="100" viewBox="0 0 100 100" width="100" xmlns="http://www.w3.org/2000/svg"><g fill="#eb0029"><path d="m82 13h-65c-1.3261 0-2.5979.5268-3.5355 1.4645-.9377.9376-1.4645 2.2094-1.4645 3.5355v65c0 1.3261.5268 2.5979 1.4645 3.5355.9376.9377 2.2094 1.4645 3.5355 1.4645h65c1.3261 0 2.5979-.5268 3.5355-1.4645.9377-.9376 1.4645-2.2094 1.4645-3.5355v-65c0-1.3261-.5268-2.5979-1.4645-3.5355-.9376-.9377-2.2094-1.4645-3.5355-1.4645zm-65 2.5h65c.663 0 1.2989.2634 1.7678.7322.4688.4689.7322 1.1048.7322 1.7678v5h-70v-5c0-.663.2634-1.2989.7322-1.7678.4689-.4688 1.1048-.7322 1.7678-.7322zm65 70h-65c-.663 0-1.2989-.2634-1.7678-.7322-.4688-.4689-.7322-1.1048-.7322-1.7678v-57.5h70v57.5c0 .663-.2634 1.2989-.7322 1.7678-.4689.4688-1.1048.7322-1.7678.7322z"/><path d="m81.515 51.7798c-.4516-.3464-.9788-.5866-1.5407-.7019-.562-.1152-1.1436-.1025-1.6996.0373-2.5709.7649-4.845 2.2712-6.5239 4.3213-1.6208 1.6789-2.9002 3.0044-5.2508 3.0044-.807.0228-1.6098-.1221-2.3552-.425-.7455-.3028-1.4166-.7569-1.9691-1.332-.5882-.6072-1.2945-1.0936-2.0776-1.4306-.7831-.3371-1.6271-.518-2.4827-.5323-3.6338 0-5.775 2.5828-7.8451 5.0838s-4.0108 4.8358-7.3857 4.8358c-2.5423.0715-5.02-.7882-6.9465-2.4104-1.9512-1.6417-4.4399-2.5462-7.015-2.5494-6.7269 0-11.4231 6.1192-11.4231 14.8795v3.7198c0 .9866.4012 1.9328 1.1152 2.6304.7141.6976 1.6826 1.0895 2.6925 1.0895h58.3846c1.0099 0 1.9784-.3919 2.6924-1.0895.7141-.6976 1.1153-1.6438 1.1153-2.6304v-23.5467c.0009-.5706-.1325-1.1338-.39-1.6459-.2575-.5122-.6322-.9596-1.095-1.3077zm-53.0919 10.3809c2.039-.0025 4.0061.7361 5.5186 2.072 2.3582 1.9387 5.3619 2.966 8.4429 2.8879 4.5857 0 7.1217-3.059 9.3593-5.7584 1.8506-2.2319 3.4485-4.1613 5.8715-4.1613.5532.0196 1.0963.1508 1.595.3856.4987.2347.9422.5679 1.3026.9784.7818.7693 1.7159 1.375 2.7452 1.7801 1.0294.405 2.1324.601 3.2418.5758 3.446 0 5.3028-1.9232 7.0975-3.7819 1.3559-1.7035 3.2076-2.9665 5.3118-3.6231.1806-.0446.3693-.0477.5514-.0092s.3526.1176.4982.2311c.1566.1164.2839.2664.3719.4384.088.1719.1345.3613.1358.5536v7.4744c-4.5451.315-6.2636 2.3187-7.3247 4.289-.4253.7894-1.0222 1.4783-1.7488 2.0185s-1.5653.9186-2.4574 1.1087c-.9187.196-1.8702.1931-2.7876-.0085-.9175-.2016-1.7786-.5969-2.5229-1.1583-2.0613-1.6326-4.6256-2.539-7.279-2.5729-3.6465 0-5.5707 2.4018-7.2677 4.5196-1.787 2.2319-3.3317 4.1601-6.6939 4.1601-2.5423.0715-5.02-.7883-6.9465-2.4105-1.9512-1.6417-4.4399-2.5461-7.015-2.5493-3.3666.1082-6.5513 1.518-8.8542 3.9195.3046-5.6555 3.1033-11.3593 8.8542-11.3593zm50.7692 17.3594h-58.3846c-.3366 0-.6595-.1306-.8975-.3632-.238-.2325-.3717-.5479-.3717-.8768v-.8679c.7831-1.116 4.0615-5.3318 8.8846-5.3318 2.039-.0026 4.0061.736 5.5186 2.0719 2.3582 1.9387 5.3619 2.9661 8.4429 2.8879 4.5997 0 6.8691-2.8346 8.6942-5.1123 1.7719-2.2109 2.9739-3.5674 5.2674-3.5674 2.0931.041 4.1113.7681 5.7305 2.0645 1.0379.7801 2.2375 1.3293 3.5151 1.6095 1.2777.2801 2.6025.2843 3.882.0124 1.2536-.2671 2.4323-.7989 3.4534-1.558 1.021-.7591 1.8598-1.7272 2.4574-2.8364.7032-1.3032 1.7465-2.682 5.0769-2.9585v13.5861c0 .3289-.1337.6443-.3717.8768-.238.2326-.5609.3632-.8975.3632z"/><path d="m18.6667 19h1.6666c.4421 0 .866-.1054 1.1785-.2929.3126-.1875.4882-.4419.4882-.7071s-.1756-.5196-.4882-.7071c-.3125-.1875-.7364-.2929-1.1785-.2929h-1.6666c-.4421 0-.866.1054-1.1785.2929-.3126.1875-.4882.4419-.4882.7071s.1756.5196.4882.7071c.3125.1875.7364.2929 1.1785.2929z"/><path d="m25.3333 19h1.3334c.3536 0 .6927-.1054.9428-.2929.25-.1875.3905-.4419.3905-.7071s-.1405-.5196-.3905-.7071c-.2501-.1875-.5892-.2929-.9428-.2929h-1.3334c-.3536 0-.6927.1054-.9428.2929-.25.1875-.3905.4419-.3905.7071s.1405.5196.3905.7071c.2501.1875.5892.2929.9428.2929z"/><path d="m32.3333 19h1.3334c.3536 0 .6927-.1054.9428-.2929.25-.1875.3905-.4419.3905-.7071s-.1405-.5196-.3905-.7071c-.2501-.1875-.5892-.2929-.9428-.2929h-1.3334c-.3536 0-.6927.1054-.9428.2929-.25.1875-.3905.4419-.3905.7071s.1405.5196.3905.7071c.2501.1875.5892.2929.9428.2929z"/><path d="m74.25 19h7.5c.3315 0 .6495-.1054.8839-.2929s.3661-.4419.3661-.7071-.1317-.5196-.3661-.7071-.5524-.2929-.8839-.2929h-7.5c-.3315 0-.6495.1054-.8839.2929s-.3661.4419-.3661.7071.1317.5196.3661.7071.5524.2929.8839.2929z"/><path d="m30.5 40c1.7233-.0021 3.3754-.6875 4.5939-1.9061 1.2186-1.2185 1.904-2.8706 1.9061-4.5939 0-.3448-.137-.6754-.3808-.9192s-.5744-.3808-.9192-.3808-.6754.137-.9192.3808-.3808.5744-.3808.9192c0 .7713-.2287 1.5254-.6573 2.1667-.4285.6414-1.0376 1.1412-1.7502 1.4364-.7127.2952-1.4968.3724-2.2534.222-.7565-.1505-1.4514-.522-1.9968-1.0674s-.9169-1.2403-1.0674-1.9968c-.1504-.7566-.0732-1.5407.222-2.2534.2952-.7126.795-1.3217 1.4364-1.7502.6413-.4286 1.3954-.6573 2.1667-.6573.3448 0 .6754-.137.9192-.3808s.3808-.5744.3808-.9192-.137-.6754-.3808-.9192-.5744-.3808-.9192-.3808c-1.7239 0-3.3772.6848-4.5962 1.9038s-1.9038 2.8723-1.9038 4.5962.6848 3.3772 1.9038 4.5962 2.8723 1.9038 4.5962 1.9038z"/><path d="m50.798 40c1.0173-.0025 2.0162-.3039 2.8972-.8742.881-.5702 1.6132-1.3894 2.1238-2.3758.0839-.148.1402-.3134.1656-.4864s.0193-.35-.0179-.5203-.1048-.3304-.1986-.4707c-.0938-.1402-.212-.2578-.3474-.3455-.1354-.0878-.2852-.1439-.4405-.165-.1552-.0212-.3127-.0069-.4629.042-.1502.0488-.29.1312-.4111.2422-.121.111-.2208.2483-.2933.4037-.3053.5928-.7443 1.0851-1.2731 1.4273-.5287.3423-1.1285.5226-1.739.5227-.6106.0001-1.2104-.1799-1.7393-.522-.5288-.3421-.968-.8342-1.2735-1.4269-.3054-.5927-.4663-1.2651-.4666-1.9495-.0002-.6845.1602-1.357.4653-1.95.305-.5929.7438-1.0854 1.2724-1.428s1.1283-.5232 1.7389-.5236c.3075 0 .6025-.137.8199-.3808.2175-.2438.3397-.5744.3397-.9192s-.1222-.6754-.3397-.9192c-.2174-.2438-.5124-.3808-.8199-.3808-1.5377 0-3.0125.6848-4.0998 1.9038s-1.6982 2.8723-1.6982 4.5962.6109 3.3772 1.6982 4.5962 2.5621 1.9038 4.0998 1.9038z"/><path d="m70.5 40c.9916-.001 1.9699-.2286 2.8601-.6655s1.6688-1.0715 2.2762-1.8553c.6075-.7838 1.0277-1.6961 1.2287-2.6672.201-.971.1773-1.9752-.0692-2.9357-.0862-.3341-.3016-.6203-.5987-.7956-.2972-.1752-.6519-.2253-.986-.1391s-.6202.3016-.7955.5988-.2254.6518-.1392.9859c.2031.7875.1549 1.6189-.1379 2.3777-.2928.7587-.8155 1.407-1.4949 1.854-.6794.4471-1.4816.6705-2.2943.6391s-1.5952-.3161-2.2381-.8143c-.6429-.4981-1.1139-1.1848-1.3473-1.9639-.2333-.7792-.2172-1.6117.046-2.3812.2633-.7696.7605-1.4375 1.4222-1.9105.6616-.4729 1.4546-.7272 2.2679-.7272.3447 0 .6754-.137.9192-.3808s.3808-.5744.3808-.9192-.137-.6754-.3808-.9192-.5745-.3808-.9192-.3808c-1.7239 0-3.3772.6848-4.5962 1.9038s-1.9038 2.8723-1.9038 4.5962.6848 3.3772 1.9038 4.5962 2.8723 1.9038 4.5962 1.9038z"/><path d="m68.3333 47c-.3536 0-.6927.1054-.9428.2929-.25.1875-.3905.4419-.3905.7071s.1405.5196.3905.7071c.2501.1875.5892.2929.9428.2929h5.3334c.3536 0 .6927-.1054.9428-.2929.25-.1875.3905-.4419.3905-.7071s-.1405-.5196-.3905-.7071c-.2501-.1875-.5892-.2929-.9428-.2929z"/><path d="m48.3333 47c-.3536 0-.6927.1054-.9428.2929-.25.1875-.3905.4419-.3905.7071s.1405.5196.3905.7071c.2501.1875.5892.2929.9428.2929h5.3334c.3536 0 .6927-.1054.9428-.2929.25-.1875.3905-.4419.3905-.7071s-.1405-.5196-.3905-.7071c-.2501-.1875-.5892-.2929-.9428-.2929z"/><path d="m27.3333 47c-.3536 0-.6927.1054-.9428.2929-.25.1875-.3905.4419-.3905.7071s.1405.5196.3905.7071c.2501.1875.5892.2929.9428.2929h5.3334c.3536 0 .6927-.1054.9428-.2929.25-.1875.3905-.4419.3905-.7071s-.1405-.5196-.3905-.7071c-.2501-.1875-.5892-.2929-.9428-.2929z"/><path d="m68.3333 42c-.3536 0-.6927.2107-.9428.5858-.25.3751-.3905.8838-.3905 1.4142s.1405 1.0391.3905 1.4142c.2501.3751.5892.5858.9428.5858h5.3334c.3536 0 .6927-.2107.9428-.5858.25-.3751.3905-.8838.3905-1.4142s-.1405-1.0391-.3905-1.4142c-.2501-.3751-.5892-.5858-.9428-.5858z"/><path d="m48.3333 42c-.3536 0-.6927.2107-.9428.5858-.25.3751-.3905.8838-.3905 1.4142s.1405 1.0391.3905 1.4142c.2501.3751.5892.5858.9428.5858h5.3334c.3536 0 .6927-.2107.9428-.5858.25-.3751.3905-.8838.3905-1.4142s-.1405-1.0391-.3905-1.4142c-.2501-.3751-.5892-.5858-.9428-.5858z"/><path d="m27.3333 42c-.3536 0-.6927.2107-.9428.5858-.25.3751-.3905.8838-.3905 1.4142s.1405 1.0391.3905 1.4142c.2501.3751.5892.5858.9428.5858h5.3334c.3536 0 .6927-.2107.9428-.5858.25-.3751.3905-.8838.3905-1.4142s-.1405-1.0391-.3905-1.4142c-.2501-.3751-.5892-.5858-.9428-.5858z"/></g></svg>

<svg width="100" height="100" viewBox="0 0 100 100" fill="none" xmlns="http://www.w3.org/2000/svg">
<path d="M82 13H17C15.6739 13 14.4021 13.5268 13.4645 14.4645C12.5268 15.4021 12 16.6739 12 18L12 83C12 84.3261 12.5268 85.5979 13.4645 86.5355C14.4021 87.4732 15.6739 88 17 88H82C83.3261 88 84.5979 87.4732 85.5355 86.5355C86.4732 85.5979 87 84.3261 87 83V18C87 16.6739 86.4732 15.4021 85.5355 14.4645C84.5979 13.5268 83.3261 13 82 13V13ZM17 15.5H82C82.663 15.5 83.2989 15.7634 83.7678 16.2322C84.2366 16.7011 84.5 17.337 84.5 18V23H14.5V18C14.5 17.337 14.7634 16.7011 15.2322 16.2322C15.7011 15.7634 16.337 15.5 17 15.5V15.5ZM82 85.5H17C16.337 85.5 15.7011 85.2366 15.2322 84.7678C14.7634 84.2989 14.5 83.663 14.5 83V25.5H84.5V83C84.5 83.663 84.2366 84.2989 83.7678 84.7678C83.2989 85.2366 82.663 85.5 82 85.5Z" fill="#EB0029"/>
<path d="M81.515 51.7798C81.0634 51.4334 80.5362 51.1932 79.9743 51.0779C79.4123 50.9627 78.8307 50.9754 78.2747 51.1152C75.7038 51.8801 73.4297 53.3864 71.7508 55.4365C70.13 57.1154 68.8506 58.4409 66.5 58.4409C65.693 58.4637 64.8902 58.3188 64.1448 58.0159C63.3993 57.7131 62.7282 57.259 62.1757 56.6839C61.5875 56.0767 60.8812 55.5903 60.0981 55.2533C59.315 54.9162 58.471 54.7353 57.6154 54.721C53.9816 54.721 51.8404 57.3038 49.7703 59.8048C47.7002 62.3058 45.7595 64.6406 42.3846 64.6406C39.8423 64.7121 37.3646 63.8524 35.4381 62.2302C33.4869 60.5885 30.9982 59.684 28.4231 59.6808C21.6962 59.6808 17 65.8 17 74.5603V78.2801C17 79.2667 17.4012 80.2129 18.1152 80.9105C18.8293 81.6081 19.7978 82 20.8077 82H79.1923C80.2022 82 81.1707 81.6081 81.8847 80.9105C82.5988 80.2129 83 79.2667 83 78.2801V54.7334C83.0009 54.1628 82.8675 53.5996 82.61 53.0875C82.3525 52.5753 81.9778 52.1279 81.515 51.7798V51.7798ZM28.4231 62.1607C30.4621 62.1582 32.4292 62.8968 33.9417 64.2327C36.2999 66.1714 39.3036 67.1987 42.3846 67.1206C46.9703 67.1206 49.5063 64.0616 51.7439 61.3622C53.5945 59.1303 55.1924 57.2009 57.6154 57.2009C58.1686 57.2205 58.7117 57.3517 59.2104 57.5865C59.7091 57.8212 60.1526 58.1544 60.513 58.5649C61.2948 59.3342 62.2289 59.9399 63.2582 60.345C64.2876 60.75 65.3906 60.946 66.5 60.9208C69.946 60.9208 71.8028 58.9976 73.5975 57.1389C74.9534 55.4354 76.8051 54.1724 78.9093 53.5158C79.0899 53.4712 79.2786 53.4681 79.4607 53.5066C79.6428 53.5451 79.8133 53.6242 79.9589 53.7377C80.1155 53.8541 80.2428 54.0041 80.3308 54.1761C80.4188 54.348 80.4653 54.5374 80.4666 54.7297V62.2041C75.9215 62.5191 74.203 64.5228 73.1419 66.4931C72.7166 67.2825 72.1197 67.9714 71.3931 68.5116C70.6665 69.0518 69.8278 69.4302 68.9357 69.6203C68.017 69.8163 67.0655 69.8134 66.1481 69.6118C65.2306 69.4102 64.3695 69.0149 63.6252 68.4535C61.5639 66.8209 58.9996 65.9145 56.3462 65.8806C52.6997 65.8806 50.7755 68.2824 49.0785 70.4002C47.2915 72.6321 45.7468 74.5603 42.3846 74.5603C39.8423 74.6318 37.3646 73.772 35.4381 72.1498C33.4869 70.5081 30.9982 69.6037 28.4231 69.6005C25.0565 69.7087 21.8718 71.1185 19.5689 73.52C19.8735 67.8645 22.6722 62.1607 28.4231 62.1607ZM79.1923 79.5201H20.8077C20.4711 79.5201 20.1482 79.3895 19.9102 79.1569C19.6722 78.9244 19.5385 78.609 19.5385 78.2801V77.4122C20.3216 76.2962 23.6 72.0804 28.4231 72.0804C30.4621 72.0778 32.4292 72.8164 33.9417 74.1523C36.2999 76.091 39.3036 77.1184 42.3846 77.0402C46.9843 77.0402 49.2537 74.2056 51.0788 71.9279C52.8507 69.717 54.0527 68.3605 56.3462 68.3605C58.4393 68.4015 60.4575 69.1286 62.0767 70.425C63.1146 71.2051 64.3142 71.7543 65.5918 72.0345C66.8695 72.3146 68.1943 72.3188 69.4738 72.0469C70.7274 71.7798 71.9061 71.248 72.9272 70.4889C73.9482 69.7298 74.787 68.7617 75.3846 67.6525C76.0878 66.3493 77.1311 64.9705 80.4615 64.694V78.2801C80.4615 78.609 80.3278 78.9244 80.0898 79.1569C79.8518 79.3895 79.5289 79.5201 79.1923 79.5201Z" fill="#EB0029"/>
<path d="M18.6667 19H20.3333C20.7754 19 21.1993 18.8946 21.5118 18.7071C21.8244 18.5196 22 18.2652 22 18C22 17.7348 21.8244 17.4804 21.5118 17.2929C21.1993 17.1054 20.7754 17 20.3333 17H18.6667C18.2246 17 17.8007 17.1054 17.4882 17.2929C17.1756 17.4804 17 17.7348 17 18C17 18.2652 17.1756 18.5196 17.4882 18.7071C17.8007 18.8946 18.2246 19 18.6667 19Z" fill="#EB0029"/>
<path d="M25.3333 19H26.6667C27.0203 19 27.3594 18.8946 27.6095 18.7071C27.8595 18.5196 28 18.2652 28 18C28 17.7348 27.8595 17.4804 27.6095 17.2929C27.3594 17.1054 27.0203 17 26.6667 17H25.3333C24.9797 17 24.6406 17.1054 24.3905 17.2929C24.1405 17.4804 24 17.7348 24 18C24 18.2652 24.1405 18.5196 24.3905 18.7071C24.6406 18.8946 24.9797 19 25.3333 19V19Z" fill="#EB0029"/>
<path d="M32.3333 19H33.6667C34.0203 19 34.3594 18.8946 34.6095 18.7071C34.8595 18.5196 35 18.2652 35 18C35 17.7348 34.8595 17.4804 34.6095 17.2929C34.3594 17.1054 34.0203 17 33.6667 17H32.3333C31.9797 17 31.6406 17.1054 31.3905 17.2929C31.1405 17.4804 31 17.7348 31 18C31 18.2652 31.1405 18.5196 31.3905 18.7071C31.6406 18.8946 31.9797 19 32.3333 19V19Z" fill="#EB0029"/>
<path d="M74.25 19H81.75C82.0815 19 82.3995 18.8946 82.6339 18.7071C82.8683 18.5196 83 18.2652 83 18C83 17.7348 82.8683 17.4804 82.6339 17.2929C82.3995 17.1054 82.0815 17 81.75 17H74.25C73.9185 17 73.6005 17.1054 73.3661 17.2929C73.1317 17.4804 73 17.7348 73 18C73 18.2652 73.1317 18.5196 73.3661 18.7071C73.6005 18.8946 73.9185 19 74.25 19Z" fill="#EB0029"/>
<path d="M30.5 40C32.2233 39.9979 33.8754 39.3125 35.0939 38.0939C36.3125 36.8754 36.9979 35.2233 37 33.5C37 33.1552 36.863 32.8246 36.6192 32.5808C36.3754 32.337 36.0448 32.2 35.7 32.2C35.3552 32.2 35.0246 32.337 34.7808 32.5808C34.537 32.8246 34.4 33.1552 34.4 33.5C34.4 34.2713 34.1713 35.0254 33.7427 35.6667C33.3142 36.3081 32.7051 36.8079 31.9925 37.1031C31.2798 37.3983 30.4957 37.4755 29.7391 37.3251C28.9826 37.1746 28.2877 36.8031 27.7423 36.2577C27.1969 35.7123 26.8254 35.0174 26.6749 34.2609C26.5245 33.5043 26.6017 32.7202 26.8969 32.0075C27.1921 31.2949 27.6919 30.6858 28.3333 30.2573C28.9746 29.8287 29.7287 29.6 30.5 29.6C30.8448 29.6 31.1754 29.463 31.4192 29.2192C31.663 28.9754 31.8 28.6448 31.8 28.3C31.8 27.9552 31.663 27.6246 31.4192 27.3808C31.1754 27.137 30.8448 27 30.5 27C28.7761 27 27.1228 27.6848 25.9038 28.9038C24.6848 30.1228 24 31.7761 24 33.5C24 35.2239 24.6848 36.8772 25.9038 38.0962C27.1228 39.3152 28.7761 40 30.5 40Z" fill="#EB0029"/>
<path d="M50.798 40C51.8153 39.9975 52.8142 39.6961 53.6952 39.1258C54.5762 38.5556 55.3084 37.7364 55.819 36.75C55.9029 36.602 55.9592 36.4366 55.9846 36.2636C56.01 36.0906 56.0039 35.9136 55.9667 35.7433C55.9295 35.573 55.8619 35.4129 55.7681 35.2726C55.6743 35.1324 55.5561 35.0148 55.4207 34.9271C55.2853 34.8393 55.1355 34.7832 54.9802 34.7621C54.825 34.7409 54.6675 34.7552 54.5173 34.8041C54.3671 34.8529 54.2273 34.9353 54.1062 35.0463C53.9852 35.1573 53.8854 35.2946 53.8129 35.45C53.5076 36.0428 53.0686 36.5351 52.5398 36.8773C52.0111 37.2196 51.4113 37.3999 50.8008 37.4C50.1902 37.4001 49.5904 37.2201 49.0615 36.878C48.5327 36.5359 48.0935 36.0438 47.788 35.4511C47.4826 34.8584 47.3217 34.186 47.3214 33.5016C47.3212 32.8171 47.4816 32.1446 47.7867 31.5516C48.0917 30.9587 48.5305 30.4662 49.0591 30.1236C49.5877 29.781 50.1874 29.6004 50.798 29.6C51.1055 29.6 51.4005 29.463 51.6179 29.2192C51.8354 28.9754 51.9576 28.6448 51.9576 28.3C51.9576 27.9552 51.8354 27.6246 51.6179 27.3808C51.4005 27.137 51.1055 27 50.798 27C49.2603 27 47.7855 27.6848 46.6982 28.9038C45.6109 30.1228 45 31.7761 45 33.5C45 35.2239 45.6109 36.8772 46.6982 38.0962C47.7855 39.3152 49.2603 40 50.798 40V40Z" fill="#EB0029"/>
<path d="M70.5 40C71.4916 39.999 72.4699 39.7714 73.3601 39.3345C74.2503 38.8976 75.0289 38.263 75.6363 37.4792C76.2438 36.6954 76.664 35.7831 76.865 34.812C77.066 33.841 77.0423 32.8368 76.7958 31.8763C76.7096 31.5422 76.4942 31.256 76.1971 31.0807C75.8999 30.9055 75.5452 30.8554 75.2111 30.9416C74.877 31.0278 74.5909 31.2432 74.4156 31.5404C74.2403 31.8376 74.1902 32.1922 74.2764 32.5263C74.4795 33.3138 74.4313 34.1452 74.1385 34.904C73.8457 35.6627 73.323 36.311 72.6436 36.758C71.9642 37.2051 71.162 37.4285 70.3493 37.3971C69.5366 37.3657 68.7541 37.081 68.1112 36.5828C67.4683 36.0847 66.9973 35.398 66.7639 34.6189C66.5306 33.8397 66.5467 33.0072 66.8099 32.2377C67.0732 31.4681 67.5704 30.8002 68.2321 30.3272C68.8937 29.8543 69.6867 29.6 70.5 29.6C70.8447 29.6 71.1754 29.463 71.4192 29.2192C71.663 28.9754 71.8 28.6448 71.8 28.3C71.8 27.9552 71.663 27.6246 71.4192 27.3808C71.1754 27.137 70.8447 27 70.5 27C68.7761 27 67.1228 27.6848 65.9038 28.9038C64.6848 30.1228 64 31.7761 64 33.5C64 35.2239 64.6848 36.8772 65.9038 38.0962C67.1228 39.3152 68.7761 40 70.5 40V40Z" fill="#EB0029"/>
<path d="M68.3333 47C67.9797 47 67.6406 47.1054 67.3905 47.2929C67.1405 47.4804 67 47.7348 67 48C67 48.2652 67.1405 48.5196 67.3905 48.7071C67.6406 48.8946 67.9797 49 68.3333 49H73.6667C74.0203 49 74.3594 48.8946 74.6095 48.7071C74.8595 48.5196 75 48.2652 75 48C75 47.7348 74.8595 47.4804 74.6095 47.2929C74.3594 47.1054 74.0203 47 73.6667 47H68.3333Z" fill="#EB0029"/>
<path d="M48.3333 47C47.9797 47 47.6406 47.1054 47.3905 47.2929C47.1405 47.4804 47 47.7348 47 48C47 48.2652 47.1405 48.5196 47.3905 48.7071C47.6406 48.8946 47.9797 49 48.3333 49H53.6667C54.0203 49 54.3594 48.8946 54.6095 48.7071C54.8595 48.5196 55 48.2652 55 48C55 47.7348 54.8595 47.4804 54.6095 47.2929C54.3594 47.1054 54.0203 47 53.6667 47H48.3333Z" fill="#EB0029"/>
<path d="M27.3333 47C26.9797 47 26.6406 47.1054 26.3905 47.2929C26.1405 47.4804 26 47.7348 26 48C26 48.2652 26.1405 48.5196 26.3905 48.7071C26.6406 48.8946 26.9797 49 27.3333 49H32.6667C33.0203 49 33.3594 48.8946 33.6095 48.7071C33.8595 48.5196 34 48.2652 34 48C34 47.7348 33.8595 47.4804 33.6095 47.2929C33.3594 47.1054 33.0203 47 32.6667 47H27.3333Z" fill="#EB0029"/>
<path d="M68.3333 42C67.9797 42 67.6406 42.2107 67.3905 42.5858C67.1405 42.9609 67 43.4696 67 44C67 44.5304 67.1405 45.0391 67.3905 45.4142C67.6406 45.7893 67.9797 46 68.3333 46H73.6667C74.0203 46 74.3594 45.7893 74.6095 45.4142C74.8595 45.0391 75 44.5304 75 44C75 43.4696 74.8595 42.9609 74.6095 42.5858C74.3594 42.2107 74.0203 42 73.6667 42H68.3333Z" fill="#EB0029"/>
<path d="M48.3333 42C47.9797 42 47.6406 42.2107 47.3905 42.5858C47.1405 42.9609 47 43.4696 47 44C47 44.5304 47.1405 45.0391 47.3905 45.4142C47.6406 45.7893 47.9797 46 48.3333 46H53.6667C54.0203 46 54.3594 45.7893 54.6095 45.4142C54.8595 45.0391 55 44.5304 55 44C55 43.4696 54.8595 42.9609 54.6095 42.5858C54.3594 42.2107 54.0203 42 53.6667 42H48.3333Z" fill="#EB0029"/>
<path d="M27.3333 42C26.9797 42 26.6406 42.2107 26.3905 42.5858C26.1405 42.9609 26 43.4696 26 44C26 44.5304 26.1405 45.0391 26.3905 45.4142C26.6406 45.7893 26.9797 46 27.3333 46H32.6667C33.0203 46 33.3594 45.7893 33.6095 45.4142C33.8595 45.0391 34 44.5304 34 44C34 43.4696 33.8595 42.9609 33.6095 42.5858C33.3594 42.2107 33.0203 42 32.6667 42H27.3333Z" fill="#EB0029"/>
</svg>
